X:1
T: Miss Walsh's Fancy
C:
R:Jig
Q:180
K:A
M:6/8
L:1/16
|:E2A2A2 c2A2A2|e2A2A2 c2A2A2|E2A2A2 c2A2A2|G2A2B2 B2G2E2|E2A2A2 c2A2A2|e2A2A2 c2A2A2|a2g2a2 e2c2A2|B2A2A2 A6:|
|:a2g2a2 e2c2A2|c2A2c2 e2f2g2|a2g2a2 e2c2A2|B2A2F2 A2c2e2|a2g2a2 e2c2A2|c2A2c2 e2f2g2|a2g2a2 e2c2A2|B2A2A2 A6:|
|:E2A2A2 c2e2e2|d2f2f2 c2e2e2|E2A2A2 c2e2e2|B2A2G2 A2F2E2|E2A2A2 c2e2e2|d2f2f2 c2e2e2|a2g2a2 e2c2A2|B2A2A2 A6:|
